static/logo.svg

<svg xmlns="http://www.w3.org/2000/svg" width="144.515" height="146.786" viewBox="0 0 144.515 146.786">
  <g id="グループ_1115" data-name="グループ 1115" transform="translate(-1619 -1084.448)">
    <g id="グループ_874" data-name="グループ 874" transform="translate(1619 1084.448)">
      <g id="グループ_259" data-name="グループ 259" transform="matrix(0.985, -0.174, 0.174, 0.985, 0, 24.368)">
        <g id="楕円形_46" data-name="楕円形 46" transform="translate(0 0)" fill="none" stroke="#5f5d5d" stroke-width="1.5">
          <circle cx="18.191" cy="18.191" r="18.191" stroke="none"/>
          <circle cx="18.191" cy="18.191" r="17.441" fill="none"/>
        </g>
        <g id="前面オブジェクトで型抜き_1" data-name="前面オブジェクトで型抜き 1" transform="translate(51.974 0)" fill="none">
          <path d="M18.191,36.382A18.191,18.191,0,0,1,5.328,5.328,18.072,18.072,0,0,1,18.191,0a18.328,18.328,0,0,1,3.617.36A18.2,18.2,0,0,0,35.071,24.985a18.2,18.2,0,0,1-16.88,11.4Z" stroke="none"/>
          <path d="M 18.19089698791504 34.88179397583008 C 21.58586692810059 34.88179397583008 24.85264587402344 33.86894607543945 27.6380558013916 31.95272445678711 C 29.88090515136719 30.40978050231934 31.69380760192871 28.37107276916504 32.9505729675293 25.99383163452148 C 29.28227043151855 24.87449836730957 25.9795036315918 22.68272590637207 23.51071548461914 19.69939422607422 C 20.59991645812988 16.18194580078125 18.99686622619629 11.72638511657715 18.99686622619629 7.153465270996094 C 18.99686622619629 5.246902465820312 19.2656364440918 3.378311395645142 19.79763412475586 1.576502561569214 C 19.26449966430664 1.525614500045776 18.72780799865723 1.500005125999451 18.19089698791504 1.500005125999451 C 13.7324161529541 1.500005125999451 9.540905952453613 3.236114978790283 6.388506412506104 6.388514995574951 C 3.236106395721436 9.540915489196777 1.499996423721313 13.73241519927979 1.499996423721313 18.19089508056641 C 1.499996423721313 22.64885520935059 3.236116409301758 26.84017562866211 6.38853645324707 29.99279594421387 C 9.541086196899414 33.14551544189453 13.73258686065674 34.88179397583008 18.19089698791504 34.88179397583008 M 18.19089698791504 36.38179397583008 C 13.33190631866455 36.38179397583008 8.763716697692871 34.48947525024414 5.327846527099609 31.05342483520508 C 1.892136454582214 27.61750602722168 -3.587036189856008e-06 23.04951477050781 -3.587036189856008e-06 18.19089508056641 C -3.587036189856008e-06 13.33174514770508 1.892136454582214 8.763565063476562 5.327846527099609 5.327855110168457 C 8.763566017150879 1.89213502407074 13.33174610137939 5.080566552351229e-06 18.19089698791504 5.080566552351229e-06 C 19.40819549560547 5.080566552351229e-06 20.62517547607422 0.1210150793194771 21.80803680419922 0.359685093164444 C 20.93839645385742 2.518054962158203 20.49686622619629 4.803094863891602 20.49686622619629 7.153465270996094 C 20.49686622619629 11.37804508209229 21.97761726379395 15.49399471282959 24.66633605957031 18.74308586120605 C 27.31981658935547 21.94960594177246 31.0147762298584 24.16620445251465 35.070556640625 24.98458480834961 C 33.729736328125 28.31265449523926 31.45320701599121 31.14879417419434 28.48822593688965 33.18853378295898 C 25.45158576965332 35.2775764465332 21.89081573486328 36.38179397583008 18.19089698791504 36.38179397583008 Z" stroke="none" fill="#5f5d5d"/>
        </g>
        <g id="楕円形_48" data-name="楕円形 48" transform="translate(103.948 0)" fill="none" stroke="#5f5d5d" stroke-width="1.5">
          <circle cx="18.191" cy="18.191" r="18.191" stroke="none"/>
          <circle cx="18.191" cy="18.191" r="17.441" fill="none"/>
        </g>
      </g>
      <text id="nurse" transform="translate(19.921 91.786)" fill="#5f5d5d" font-size="40" font-family="Didot-Bold, Didot" font-weight="700"><tspan x="0" y="0">nurse</tspan></text>
    </g>
    <text id="line" transform="translate(1655.921 1219.234)" fill="#5f5d5d" font-size="40" font-family="Didot-Bold, Didot" font-weight="700"><tspan x="0" y="0">line</tspan></text>
  </g>
</svg>

<svg height="111.786" viewBox="0 0 144.515 111.786" width="144.515" xmlns="http://www.w3.org/2000/svg"><g fill="none" transform="matrix(.985 -.174 .174 .985 0 24.368)"><g stroke="#5f5d5d" stroke-width="1.5"><circle cx="18.191" cy="18.191" r="18.191" stroke="none"/><circle cx="18.191" cy="18.191" fill="none" r="17.441"/></g><g transform="translate(51.974)"><path d="m18.191 36.382a18.191 18.191 0 0 1 -12.863-31.054 18.072 18.072 0 0 1 12.863-5.328 18.328 18.328 0 0 1 3.617.36 18.2 18.2 0 0 0 13.263 24.625 18.2 18.2 0 0 1 -16.88 11.4z"/><path d="m18.19089699 34.88179398c3.39496994 0 6.66174888-1.0128479 9.44715881-2.92906952 2.24284935-1.54294396 4.0557518-3.58165169 5.31251717-5.95889283-3.66830254-1.11933326-6.97106934-3.31110572-9.43985749-6.2944374-2.91079902-3.51744843-4.51384925-7.97300911-4.51384925-12.54592896 0-1.9065628.26877021-3.77515387.80076789-5.57696271-.53313446-.05088806-1.06982612-.07649743-1.60673713-.07649743-4.45848084 0-8.64999104 1.73610985-11.80239058 4.88850987-3.15240001 3.15240049-4.88850999 7.3439002-4.88850999 11.80238008 0 4.45796013 1.73611999 8.64928055 4.88854003 11.80190086 3.15254975 3.1527195 7.34405041 4.88899804 11.80236054 4.88899804m0 1.5c-4.85899067 0-9.42718029-1.89231873-12.86305046-5.32836914-3.43571008-3.43591881-5.32785012-8.00391007-5.32785012-12.86252976 0-4.85914993 1.89214004-9.42733002 5.32785012-12.86303997 3.43571949-3.43572009 8.00389957-5.32785003 12.86305046-5.32785003 1.21729851 0 2.43427849.12101 3.61713981.35968001-.86964035 2.15836987-1.31117057 4.44340977-1.31117057 6.79378018 0 4.22457981 1.48075103 8.34052944 4.16946983 11.58962059 2.65348053 3.20652008 6.34844017 5.42311859 10.40422058 6.24149895-1.34082031 3.32806969-3.61734962 6.16420936-6.5823307 8.20394897-3.03664017 2.08904267-6.59741021 3.1932602-10.29732895 3.1932602z" fill="#5f5d5d"/></g><g stroke="#5f5d5d" stroke-width="1.5"><circle cx="122.139" cy="18.191" r="18.191" stroke="none"/><circle cx="122.139" cy="18.191" fill="none" r="17.441"/></g></g><text fill="#5f5d5d" font-family="Didot-Bold, Didot" font-size="40" font-weight="700" transform="translate(18.921 99.786)"><tspan x="0" y="0">n</tspan><tspan text-decoration="line-through" y="0">o</tspan><tspan xml:space="preserve" y="0"> ize</tspan></text></svg>
